X:117
T: VERSCHWUNDEN IST DES TAGES LICHT
N: F0236
O: Europa, Mitteleuropa, Deutschland
R: Jugend - Lied, Abend
M: 4/4
L: 1/8
K: Ab
A2 | c2B2A2E2 | F2G2A2
c2 | B2G2A2F2 | E4z2
c2 | B2A2G2F2 | E3DC2
A2 | F3BA2G2 | A4z2

